Newaita-dark/apps/48/sublime-merge.svg

<svg height="48" viewBox="0 0 48 48" width="48" xmlns="http://www.w3.org/2000/svg" xmlns:xlink="http://www.w3.org/1999/xlink"><linearGradient id="a" gradientUnits="userSpaceOnUse" x1="23.81478" x2="23.81478" y1="42.0509045" y2="44.03547050005"><stop offset="0" stop-opacity=".27451"/><stop offset="1" stop-opacity="0"/></linearGradient><linearGradient id="b"><stop offset="0" stop-opacity=".313726"/><stop offset=".222222" stop-opacity=".27451"/><stop offset="1" stop-opacity="0"/></linearGradient><radialGradient id="c" cx="450.908936" cy="189.579361" gradientTransform="matrix(.00000026 -.117199 -.210958 -.00000015 78.195972 95.392999)" gradientUnits="userSpaceOnUse" r="21.166656" xlink:href="#b"/><radialGradient id="d" cx="450.908936" cy="189.579361" gradientTransform="matrix(-.00000026 .117199 .210958 .00000015 -30.56642 -11.291218)" gradientUnits="userSpaceOnUse" r="21.166656" xlink:href="#b"/><radialGradient id="e" cx="450.908936" cy="189.579361" gradientTransform="matrix(-.00000026 -.117199 .210958 -.00000015 -30.56642 95.392999)" gradientUnits="userSpaceOnUse" r="21.166656" xlink:href="#b"/><radialGradient id="f" cx="450.908936" cy="189.579361" gradientTransform="matrix(.00000026 .117199 -.210958 .00000015 78.195969 -11.291219)" gradientUnits="userSpaceOnUse" r="21.166656" xlink:href="#b"/><linearGradient id="g" gradientUnits="userSpaceOnUse" x1="15.87652349995" x2="15.87652349995" y1="42.0509015" y2="4.3441580001"><stop offset="0" stop-color="#424242"/><stop offset="1" stop-color="#616161"/></linearGradient><linearGradient id="h" gradientUnits="userSpaceOnUse" x1="23.81478459362" x2="23.814786" y1="42.0509015" y2="4.3441580001"><stop offset="0" stop-color="#26c6da"/><stop offset="1" stop-color="#4dd0e1"/></linearGradient><linearGradient id="i" gradientTransform="matrix(.093759 0 0 -.093759 0 26.238466)" gradientUnits="userSpaceOnUse" x1="253.999985" x2="254" y1="233.5" y2="-168.666656"><stop offset="0" stop-color="#b2ebf2"/><stop offset="1" stop-color="#80deea"/></linearGradient><path d="m8.929688 41.902344h29.769531v2.207031h-29.769531zm0 0" fill="url(#a)"/><path d="m38.699219 42.050781h3.96875v-1.984375h-3.96875zm0 0" fill="url(#c)"/><path d="m8.929688 42.050781h-3.96875v1.984375h3.96875zm0 0" fill="url(#d)"/><path d="m8.929688 42.050781h-3.96875v-1.984375h3.96875zm0 0" fill="url(#e)"/><path d="m38.699219 42.050781h3.96875v1.984375h-3.96875zm0 0" fill="url(#f)"/><path d="m6.945312 4.34375h33.738282c1.097656 0 1.984375.890625 1.984375 1.984375v33.738281c0 1.097656-.886719 1.984375-1.984375 1.984375h-33.738282c-1.09375 0-1.984374-.886719-1.984374-1.984375v-33.738281c0-1.09375.890624-1.984375 1.984374-1.984375zm0 0" fill="url(#g)"/><path d="m12.953125 18.546875c-.136719.40625.003906.867187.371094 1.121094l5.925781 4.148437 3.996094-2.796875c.167968-.117187.367187-.179687.570312-.179687h.808594l-.878906-.617188c-.179688.011719-.351563.074219-.5.175782l-3.996094 2.796874-5.925781-4.148437c-.183594-.125-.308594-.304687-.371094-.5zm0 0" fill-opacity=".235294"/><path d="m6.945312 4.34375c-1.097656 0-1.984374.886719-1.984374 1.984375v.25c0-1.101563.886718-1.988281 1.984374-1.984375h33.738282c1.097656-.003906 1.984375.882812 1.984375 1.984375v-.25c0-1.097656-.886719-1.984375-1.984375-1.984375zm0 0" fill="#e6e6e6" fill-opacity=".392157"/><path d="m6.945312 42.050781c-1.097656 0-1.984374-.886719-1.984374-1.984375v-.25c0 1.101563.886718 1.988282 1.984374 1.988282h33.738282c1.097656 0 1.984375-.886719 1.984375-1.988282v.25c0 1.097656-.886719 1.984375-1.984375 1.984375zm0 0" fill-opacity=".196078"/><path d="m74.076259-168.671091h359.840637c11.707216 0 21.164646 9.499093 21.164646 21.164646v359.840637c0 11.707215-9.45743 21.164645-21.164646 21.164645h-359.840637c-11.665552 0-21.164645-9.45743-21.164645-21.164645v-359.840637c0-11.665553 9.499093-21.164646 21.164645-21.164646zm0 0" fill="none" stroke="#212121" stroke-linecap="round" stroke-width="3" transform="matrix(.093759 0 0 .093759 0 20.158175)"/><path d="m23.816406 20.222656c-.203125 0-.402344.0625-.570312.179688l-9.921875 6.945312c-.441407.308594-.554688.914063-.257813 1.359375l1.984375 2.976563c.3125.464844.941407.582031 1.398438.261718l8.175781-5.773437h7.128906c.261719 0 .515625-.101563.699219-.289063l1.984375-1.984374c.386719-.386719.386719-1.015626 0-1.402344l-1.984375-1.984375c-.183594-.183594-.4375-.289063-.699219-.289063zm0 0" fill="url(#h)"/><path d="m15.886719 14.269531c-.324219-.003906-.640625.152344-.835938.441407l-1.984375 2.976562c-.296875.449219-.183594 1.054688.257813 1.363281l5.925781 4.148438 3.996094-2.796875c.167968-.117188.367187-.179688.570312-.179688h.808594l-8.175781-5.769531c-.171875-.121094-.367188-.179687-.5625-.183594zm0 0" fill="url(#i)"/><path d="m23.816406 20.222656c-.203125 0-.402344.0625-.570312.179688l-9.921875 6.945312c-.347657.242188-.492188.671875-.390625 1.058594.054687-.21875.1875-.421875.390625-.5625l9.921875-6.949219c.167968-.113281.367187-.175781.570312-.175781h7.9375c.261719 0 .515625.101562.699219.289062l1.984375 1.984376c.128906.128906.214844.285156.257812.453124.085938-.328124 0-.691406-.257812-.949218l-1.984375-1.984375c-.183594-.183594-.4375-.289063-.699219-.289063zm0 0" fill="#fff" fill-opacity=".392157"/><path d="m34.65625 23.570312c-.046875.121094-.121094.230469-.21875.328126l-1.984375 1.984374c-.183594.1875-.4375.292969-.699219.292969h-7.128906l-8.175781 5.769531c-.457031.324219-1.085938.207032-1.398438-.257812l-1.984375-2.976562c-.035156-.058594-.066406-.117188-.09375-.179688-.117187.296875-.09375.640625.09375.921875l1.984375 2.976563c.3125.464843.941407.582031 1.398438.261718l8.175781-5.773437h7.128906c.261719 0 .515625-.105469.699219-.289063l1.984375-1.984375c.289062-.289062.363281-.714843.21875-1.074219zm0 0" fill-opacity=".235294"/><path d="m15.886719 14.269531c-.324219-.003906-.640625.152344-.835938.441407l-1.984375 2.976562c-.160156.242188-.199218.53125-.132812.796875.027344-.105469.070312-.207031.132812-.304687l1.984375-2.976563c.195313-.289063.511719-.441406.835938-.441406.195312.003906.390625.0625.5625.183593l7.476562 5.277344h.699219l-8.175781-5.769531c-.171875-.121094-.367188-.179687-.5625-.183594zm0 0" fill="#fff" fill-opacity=".392157"/><g fill="none" stroke="#212121" stroke-linecap="round" stroke-linejoin="round"><path d="m254.017409.687736c-2.16646 0-4.291257.666603-6.082752 1.916484l-105.823228 74.076259c-4.707884 3.291353-5.916102 9.749069-2.749737 14.498616l21.164645 31.746968c3.333015 4.95786 10.040708 6.207741 14.915242 2.7914l87.200007-61.577453h76.034405c2.7914 0 5.499475-1.08323 7.457622-3.083039l21.164645-21.164645c4.124606-4.124606 4.124606-10.832299 0-14.956905l-21.164645-21.164646c-1.958147-1.958146-4.666222-3.083039-7.457622-3.083039zm0 0" stroke-width="3" transform="matrix(.093759 0 0 .093759 0 20.158175)"/><path d="m640.411318 575.22069c-13.069618-.157465-25.824307 6.141146-33.697571 17.793577l-79.992365 119.988548c-11.967362 18.108508-7.400869 42.515627 10.392709 54.955385l238.874839 167.228134 161.086987-112.745145c6.771008-4.723959 14.801737-7.243403 22.989932-7.243403h32.595314l-329.574843-232.576228c-6.928473-4.881423-14.801737-7.243403-22.675002-7.400868zm0 0" stroke-width="11.338583" transform="scale(.0248071)"/></g></svg>

<?xml version="1.0" encoding="UTF-8"?>
<svg xmlns="http://www.w3.org/2000/svg" xmlns:xlink="http://www.w3.org/1999/xlink" width="48px" height="48px" viewBox="0 0 48 48" version="1.1">
<defs>
<linearGradient id="linear0" gradientUnits="userSpaceOnUse" x1="254" y1="233.5" x2="254" y2="254.666672" gradientTransform="matrix(0.093759,0,0,0.093759,-0.00000572259,20.158178)">
<stop offset="0" style="stop-color:rgb(0%,0%,0%);stop-opacity:0.27451;"/>
<stop offset="1" style="stop-color:rgb(0%,0%,0%);stop-opacity:0;"/>
</linearGradient>
<radialGradient id="radial0" gradientUnits="userSpaceOnUse" cx="450.908936" cy="189.579361" fx="450.908936" fy="189.579361" r="21.166656" gradientTransform="matrix(0.000000261256,-0.117199,-0.210958,-0.000000152308,78.195972,95.392999)">
<stop offset="0" style="stop-color:rgb(0%,0%,0%);stop-opacity:0.313726;"/>
<stop offset="0.222222" style="stop-color:rgb(0%,0%,0%);stop-opacity:0.27451;"/>
<stop offset="1" style="stop-color:rgb(0%,0%,0%);stop-opacity:0;"/>
</radialGradient>
<radialGradient id="radial1" gradientUnits="userSpaceOnUse" cx="450.908936" cy="189.579361" fx="450.908936" fy="189.579361" r="21.166656" gradientTransform="matrix(-0.000000261256,0.117199,0.210958,0.000000152308,-30.56642,-11.291218)">
<stop offset="0" style="stop-color:rgb(0%,0%,0%);stop-opacity:0.313726;"/>
<stop offset="0.222222" style="stop-color:rgb(0%,0%,0%);stop-opacity:0.27451;"/>
<stop offset="1" style="stop-color:rgb(0%,0%,0%);stop-opacity:0;"/>
</radialGradient>
<radialGradient id="radial2" gradientUnits="userSpaceOnUse" cx="450.908936" cy="189.579361" fx="450.908936" fy="189.579361" r="21.166656" gradientTransform="matrix(-0.000000261256,-0.117199,0.210958,-0.000000152308,-30.56642,95.392999)">
<stop offset="0" style="stop-color:rgb(0%,0%,0%);stop-opacity:0.313726;"/>
<stop offset="0.222222" style="stop-color:rgb(0%,0%,0%);stop-opacity:0.27451;"/>
<stop offset="1" style="stop-color:rgb(0%,0%,0%);stop-opacity:0;"/>
</radialGradient>
<radialGradient id="radial3" gradientUnits="userSpaceOnUse" cx="450.908936" cy="189.579361" fx="450.908936" fy="189.579361" r="21.166656" gradientTransform="matrix(0.000000261256,0.117199,-0.210958,0.000000152308,78.195969,-11.291219)">
<stop offset="0" style="stop-color:rgb(0%,0%,0%);stop-opacity:0.313726;"/>
<stop offset="0.222222" style="stop-color:rgb(0%,0%,0%);stop-opacity:0.27451;"/>
<stop offset="1" style="stop-color:rgb(0%,0%,0%);stop-opacity:0;"/>
</radialGradient>
<linearGradient id="linear1" gradientUnits="userSpaceOnUse" x1="169.333328" y1="233.5" x2="169.333328" y2="-168.666656" gradientTransform="matrix(0.093759,0,0,0.093759,0,20.158175)">
<stop offset="0" style="stop-color:rgb(25.882354%,25.882354%,25.882354%);stop-opacity:1;"/>
<stop offset="1" style="stop-color:rgb(38.039216%,38.039216%,38.039216%);stop-opacity:1;"/>
</linearGradient>
<linearGradient id="linear2" gradientUnits="userSpaceOnUse" x1="253.999985" y1="233.5" x2="254" y2="-168.666656" gradientTransform="matrix(0.093759,0,0,0.093759,0,20.158175)">
<stop offset="0" style="stop-color:rgb(14.901961%,77.64706%,85.490197%);stop-opacity:1;"/>
<stop offset="1" style="stop-color:rgb(30.19608%,81.568629%,88.235295%);stop-opacity:1;"/>
</linearGradient>
<linearGradient id="linear3" gradientUnits="userSpaceOnUse" x1="253.999985" y1="233.5" x2="254" y2="-168.666656" gradientTransform="matrix(0.093759,0,0,-0.093759,0,26.238466)">
<stop offset="0" style="stop-color:rgb(69.803923%,92.156863%,94.901961%);stop-opacity:1;"/>
<stop offset="1" style="stop-color:rgb(50.196081%,87.058824%,91.764706%);stop-opacity:1;"/>
</linearGradient>
</defs>
<g id="surface1">
<path style=" stroke:none;fill-rule:nonzero;fill:url(#linear0);" d="M 8.929688 41.902344 L 38.699219 41.902344 L 38.699219 44.109375 L 8.929688 44.109375 Z M 8.929688 41.902344 "/>
<path style=" stroke:none;fill-rule:nonzero;fill:url(#radial0);" d="M 38.699219 42.050781 L 42.667969 42.050781 L 42.667969 40.066406 L 38.699219 40.066406 Z M 38.699219 42.050781 "/>
<path style=" stroke:none;fill-rule:nonzero;fill:url(#radial1);" d="M 8.929688 42.050781 L 4.960938 42.050781 L 4.960938 44.035156 L 8.929688 44.035156 Z M 8.929688 42.050781 "/>
<path style=" stroke:none;fill-rule:nonzero;fill:url(#radial2);" d="M 8.929688 42.050781 L 4.960938 42.050781 L 4.960938 40.066406 L 8.929688 40.066406 Z M 8.929688 42.050781 "/>
<path style=" stroke:none;fill-rule:nonzero;fill:url(#radial3);" d="M 38.699219 42.050781 L 42.667969 42.050781 L 42.667969 44.035156 L 38.699219 44.035156 Z M 38.699219 42.050781 "/>
<path style=" stroke:none;fill-rule:nonzero;fill:url(#linear1);" d="M 6.945312 4.34375 L 40.683594 4.34375 C 41.78125 4.34375 42.667969 5.234375 42.667969 6.328125 L 42.667969 40.066406 C 42.667969 41.164062 41.78125 42.050781 40.683594 42.050781 L 6.945312 42.050781 C 5.851562 42.050781 4.960938 41.164062 4.960938 40.066406 L 4.960938 6.328125 C 4.960938 5.234375 5.851562 4.34375 6.945312 4.34375 Z M 6.945312 4.34375 "/>
<path style=" stroke:none;fill-rule:nonzero;fill:rgb(0%,0%,0%);fill-opacity:0.235294;" d="M 12.953125 18.546875 C 12.816406 18.953125 12.957031 19.414062 13.324219 19.667969 L 19.25 23.816406 L 23.246094 21.019531 C 23.414062 20.902344 23.613281 20.839844 23.816406 20.839844 L 24.625 20.839844 L 23.746094 20.222656 C 23.566406 20.234375 23.394531 20.296875 23.246094 20.398438 L 19.25 23.195312 L 13.324219 19.046875 C 13.140625 18.921875 13.015625 18.742188 12.953125 18.546875 Z M 12.953125 18.546875 "/>
<path style=" stroke:none;fill-rule:nonzero;fill:rgb(90.196079%,90.196079%,90.196079%);fill-opacity:0.392157;" d="M 6.945312 4.34375 C 5.847656 4.34375 4.960938 5.230469 4.960938 6.328125 L 4.960938 6.578125 C 4.960938 5.476562 5.847656 4.589844 6.945312 4.59375 L 40.683594 4.59375 C 41.78125 4.589844 42.667969 5.476562 42.667969 6.578125 L 42.667969 6.328125 C 42.667969 5.230469 41.78125 4.34375 40.683594 4.34375 Z M 6.945312 4.34375 "/>
<path style=" stroke:none;fill-rule:nonzero;fill:rgb(0%,0%,0%);fill-opacity:0.196078;" d="M 6.945312 42.050781 C 5.847656 42.050781 4.960938 41.164062 4.960938 40.066406 L 4.960938 39.816406 C 4.960938 40.917969 5.847656 41.804688 6.945312 41.804688 L 40.683594 41.804688 C 41.78125 41.804688 42.667969 40.917969 42.667969 39.816406 L 42.667969 40.066406 C 42.667969 41.164062 41.78125 42.050781 40.683594 42.050781 Z M 6.945312 42.050781 "/>
<path style="fill:none;stroke-width:3;stroke-linecap:round;stroke-linejoin:miter;stroke:rgb(12.941177%,12.941177%,12.941177%);stroke-opacity:1;stroke-miterlimit:4;" d="M 74.076259 -168.671091 L 433.916896 -168.671091 C 445.624112 -168.671091 455.081542 -159.171998 455.081542 -147.506445 L 455.081542 212.334192 C 455.081542 224.041407 445.624112 233.498837 433.916896 233.498837 L 74.076259 233.498837 C 62.410707 233.498837 52.911614 224.041407 52.911614 212.334192 L 52.911614 -147.506445 C 52.911614 -159.171998 62.410707 -168.671091 74.076259 -168.671091 Z M 74.076259 -168.671091 " transform="matrix(0.093759,0,0,0.093759,0,20.158175)"/>
<path style=" stroke:none;fill-rule:nonzero;fill:url(#linear2);" d="M 23.816406 20.222656 C 23.613281 20.222656 23.414062 20.285156 23.246094 20.402344 L 13.324219 27.347656 C 12.882812 27.65625 12.769531 28.261719 13.066406 28.707031 L 15.050781 31.683594 C 15.363281 32.148438 15.992188 32.265625 16.449219 31.945312 L 24.625 26.171875 L 31.753906 26.171875 C 32.015625 26.171875 32.269531 26.070312 32.453125 25.882812 L 34.4375 23.898438 C 34.824219 23.511719 34.824219 22.882812 34.4375 22.496094 L 32.453125 20.511719 C 32.269531 20.328125 32.015625 20.222656 31.753906 20.222656 Z M 23.816406 20.222656 "/>
<path style=" stroke:none;fill-rule:nonzero;fill:url(#linear3);" d="M 15.886719 14.269531 C 15.5625 14.265625 15.246094 14.421875 15.050781 14.710938 L 13.066406 17.6875 C 12.769531 18.136719 12.882812 18.742188 13.324219 19.050781 L 19.25 23.199219 L 23.246094 20.402344 C 23.414062 20.285156 23.613281 20.222656 23.816406 20.222656 L 24.625 20.222656 L 16.449219 14.453125 C 16.277344 14.332031 16.082031 14.273438 15.886719 14.269531 Z M 15.886719 14.269531 "/>
<path style=" stroke:none;fill-rule:nonzero;fill:rgb(100%,100%,100%);fill-opacity:0.392157;" d="M 23.816406 20.222656 C 23.613281 20.222656 23.414062 20.285156 23.246094 20.402344 L 13.324219 27.347656 C 12.976562 27.589844 12.832031 28.019531 12.933594 28.40625 C 12.988281 28.1875 13.121094 27.984375 13.324219 27.84375 L 23.246094 20.894531 C 23.414062 20.78125 23.613281 20.71875 23.816406 20.71875 L 31.753906 20.71875 C 32.015625 20.71875 32.269531 20.820312 32.453125 21.007812 L 34.4375 22.992188 C 34.566406 23.121094 34.652344 23.277344 34.695312 23.445312 C 34.78125 23.117188 34.695312 22.753906 34.4375 22.496094 L 32.453125 20.511719 C 32.269531 20.328125 32.015625 20.222656 31.753906 20.222656 Z M 23.816406 20.222656 "/>
<path style=" stroke:none;fill-rule:nonzero;fill:rgb(0%,0%,0%);fill-opacity:0.235294;" d="M 34.65625 23.570312 C 34.609375 23.691406 34.535156 23.800781 34.4375 23.898438 L 32.453125 25.882812 C 32.269531 26.070312 32.015625 26.175781 31.753906 26.175781 L 24.625 26.175781 L 16.449219 31.945312 C 15.992188 32.269531 15.363281 32.152344 15.050781 31.6875 L 13.066406 28.710938 C 13.03125 28.652344 13 28.59375 12.972656 28.53125 C 12.855469 28.828125 12.878906 29.171875 13.066406 29.453125 L 15.050781 32.429688 C 15.363281 32.894531 15.992188 33.011719 16.449219 32.691406 L 24.625 26.917969 L 31.753906 26.917969 C 32.015625 26.917969 32.269531 26.8125 32.453125 26.628906 L 34.4375 24.644531 C 34.726562 24.355469 34.800781 23.929688 34.65625 23.570312 Z M 34.65625 23.570312 "/>
<path style=" stroke:none;fill-rule:nonzero;fill:rgb(100%,100%,100%);fill-opacity:0.392157;" d="M 15.886719 14.269531 C 15.5625 14.265625 15.246094 14.421875 15.050781 14.710938 L 13.066406 17.6875 C 12.90625 17.929688 12.867188 18.21875 12.933594 18.484375 C 12.960938 18.378906 13.003906 18.277344 13.066406 18.179688 L 15.050781 15.203125 C 15.246094 14.914062 15.5625 14.761719 15.886719 14.761719 C 16.082031 14.765625 16.277344 14.824219 16.449219 14.945312 L 23.925781 20.222656 L 24.625 20.222656 L 16.449219 14.453125 C 16.277344 14.332031 16.082031 14.273438 15.886719 14.269531 Z M 15.886719 14.269531 "/>
<path style="fill:none;stroke-width:3;stroke-linecap:round;stroke-linejoin:round;stroke:rgb(12.941177%,12.941177%,12.941177%);stroke-opacity:1;stroke-miterlimit:4;" d="M 254.017409 0.687736 C 251.850949 0.687736 249.726152 1.354339 247.934657 2.60422 L 142.111429 76.680479 C 137.403545 79.971832 136.195327 86.429548 139.361692 91.179095 L 160.526337 122.926063 C 163.859352 127.883923 170.567045 129.133804 175.441579 125.717463 L 262.641586 64.14001 L 338.675991 64.14001 C 341.467391 64.14001 344.175466 63.05678 346.133613 61.056971 L 367.298258 39.892326 C 371.422864 35.76772 371.422864 29.060027 367.298258 24.935421 L 346.133613 3.770775 C 344.175466 1.812629 341.467391 0.687736 338.675991 0.687736 Z M 254.017409 0.687736 " transform="matrix(0.093759,0,0,0.093759,0,20.158175)"/>
<path style="fill:none;stroke-width:11.338583;stroke-linecap:round;stroke-linejoin:round;stroke:rgb(12.941177%,12.941177%,12.941177%);stroke-opacity:1;stroke-miterlimit:4;" d="M 640.411318 575.22069 C 627.3417 575.063225 614.587011 581.361836 606.713747 593.014267 L 526.721382 713.002815 C 514.75402 731.111323 519.320513 755.518442 537.114091 767.9582 L 775.98893 935.186334 L 937.075917 822.441189 C 943.846925 817.71723 951.877654 815.197786 960.065849 815.197786 L 992.661163 815.197786 L 663.08632 582.621558 C 656.157847 577.740135 648.284583 575.378155 640.411318 575.22069 Z M 640.411318 575.22069 " transform="matrix(0.0248071,0,0,0.0248071,0,0)"/>
</g>
</svg>
